images/icons/white-logo-2.svg

<svg width="80" height="30" viewBox="0 0 80 30" fill="none" xmlns="http://www.w3.org/2000/svg">
<g clip-path="url(#clip0_521_145)">
<mask id="mask0_521_145" style="mask-type:luminance" maskUnits="userSpaceOnUse" x="0" y="0" width="80" height="30">
<path d="M80 0H0V30H80V0Z" fill="white"/>
</mask>
<g mask="url(#mask0_521_145)">
<path d="M36.675 26.4285H38.7584V18.6928H36.675V26.4285ZM36.675 17.4864H38.7584V15.6467H36.675V17.4864Z" fill="white"/>
<path d="M40.1008 28.9619H42.1842V25.554H42.2149C42.6591 26.2174 43.3791 26.6547 44.482 26.6547C46.5041 26.6547 47.8828 25.0714 47.8828 22.5682C47.8828 20.1555 46.55 18.4817 44.4667 18.4817C43.3944 18.4817 42.6591 18.9793 42.1536 19.6578H42.1076V18.6928H40.1008V28.9619ZM44.0378 24.9507C42.797 24.9507 42.1382 24.0309 42.1382 22.6285C42.1382 21.2412 42.6591 20.1404 43.9612 20.1404C45.248 20.1404 45.7688 21.1658 45.7688 22.6285C45.7688 24.0912 45.0948 24.9507 44.0378 24.9507Z" fill="white"/>
<path d="M52.0386 26.6547C53.9994 26.6547 55.3474 25.7198 55.3474 24.1666C55.3474 22.3571 53.8922 21.9952 52.5748 21.7238C51.4565 21.4976 50.4148 21.4372 50.4148 20.7738C50.4148 20.2158 50.9509 19.9142 51.7629 19.9142C52.6514 19.9142 53.1875 20.2158 53.2794 21.0452H55.1637C55.0104 19.492 53.8616 18.4817 51.7935 18.4817C50.0012 18.4817 48.5918 19.2809 48.5918 20.9547C48.5918 22.6436 49.9706 23.0206 51.3799 23.292C52.4522 23.5031 53.4479 23.5785 53.4479 24.3174C53.4479 24.8603 52.9271 25.2071 52.0079 25.2071C51.0735 25.2071 50.4301 24.8151 50.2923 23.9253H48.3621C48.4847 25.569 49.7561 26.6547 52.0386 26.6547Z" fill="white"/>
<path d="M63.2574 26.4286V18.6929H61.174V23.1563C61.174 24.1817 60.5766 24.9056 59.5962 24.9056C58.7078 24.9056 58.2941 24.4079 58.2941 23.5031V18.6929H56.2261V23.85C56.2261 25.5389 57.2065 26.6397 58.9529 26.6397C60.0558 26.6397 60.6685 26.2325 61.2047 25.5238H61.2507V26.4286H63.2574Z" fill="white"/>
<path d="M64.605 26.4285H66.6884V21.9348C66.6884 20.9094 67.2552 20.246 68.0977 20.246C68.8636 20.246 69.3079 20.6983 69.3079 21.573V26.4285H71.3913V21.9348C71.3913 20.9094 71.9274 20.246 72.8006 20.246C73.5665 20.246 74.0108 20.6983 74.0108 21.573V26.4285H76.0941V21.2262C76.0941 19.5372 75.1596 18.4817 73.5052 18.4817C72.5095 18.4817 71.6823 18.9944 71.1462 19.8388H71.1155C70.7325 19.0245 69.936 18.4817 68.9402 18.4817C67.8526 18.4817 67.0867 19.0245 66.6577 19.7333H66.6118V18.6928H64.605V26.4285Z" fill="white"/>
<path d="M36.7058 13.179H38.7892V2.39722H36.7058V13.179Z" fill="white"/>
<path d="M43.8833 13.4052C46.319 13.4052 47.9887 11.6258 47.9887 9.3187C47.9887 7.01155 46.319 5.23218 43.8833 5.23218C41.4476 5.23218 39.7778 7.01155 39.7778 9.3187C39.7778 11.6258 41.4476 13.4052 43.8833 13.4052ZM43.8833 11.837C42.5965 11.837 41.8919 10.8266 41.8919 9.3187C41.8919 7.81075 42.5965 6.78536 43.8833 6.78536C45.1547 6.78536 45.8747 7.81075 45.8747 9.3187C45.8747 10.8266 45.1547 11.837 43.8833 11.837Z" fill="white"/>
<path d="M52.419 15.818C53.5833 15.818 54.5943 15.5465 55.253 14.9433C55.8351 14.4155 56.1875 13.6766 56.1875 12.5909V5.44329H54.1807V6.25758H54.1501C53.6752 5.60916 52.9552 5.23218 51.9747 5.23218C49.9834 5.23218 48.574 6.70996 48.574 9.01712C48.574 11.3544 50.2897 12.7115 52.0361 12.7115C53.0318 12.7115 53.6292 12.3195 54.0888 11.8068H54.1347V12.6512C54.1347 13.7068 53.568 14.2647 52.3884 14.2647C51.4233 14.2647 50.9791 13.8878 50.8106 13.4052H48.7425C48.957 14.9132 50.2744 15.818 52.419 15.818ZM52.3884 11.0679C51.3161 11.0679 50.6114 10.2989 50.6114 8.98697C50.6114 7.69015 51.3161 6.87583 52.3731 6.87583C53.6292 6.87583 54.2419 7.84089 54.2419 8.97189C54.2419 10.1179 53.7058 11.0679 52.3884 11.0679Z" fill="white"/>
<path d="M61.2514 13.4052C63.6871 13.4052 65.3569 11.6258 65.3569 9.3187C65.3569 7.01155 63.6871 5.23218 61.2514 5.23218C58.8158 5.23218 57.146 7.01155 57.146 9.3187C57.146 11.6258 58.8158 13.4052 61.2514 13.4052ZM61.2514 11.837C59.9647 11.837 59.26 10.8266 59.26 9.3187C59.26 7.81075 59.9647 6.78536 61.2514 6.78536C62.5229 6.78536 63.2429 7.81075 63.2429 9.3187C63.2429 10.8266 62.5229 11.837 61.2514 11.837Z" fill="white"/>
<path d="M67.1831 10.2235H76.1904V8.45923H67.1831V10.2235Z" fill="white"/>
<path d="M76.8511 17.3788C76.8511 17.0318 77.1368 16.7505 77.4896 16.7505H78.7657C79.1185 16.7505 79.4042 17.0318 79.4042 17.3788C79.4042 17.7258 79.1185 18.0071 78.7657 18.0071H77.4896C77.1368 18.0071 76.8511 17.7258 76.8511 17.3788Z" fill="white"/>
<path fill-rule="evenodd" clip-rule="evenodd" d="M15.6356 0C24.0513 0 30.8736 6.71572 30.8736 15C30.8736 23.2843 24.0513 30 15.6356 30C7.21979 30 0.397461 23.2843 0.397461 15C0.397461 6.71572 7.21979 0 15.6356 0ZM15.0848 1.12244C13.3464 1.36327 11.6911 2.73831 10.4061 5.03805C10.0334 5.70512 9.69711 6.4421 9.40401 7.23783C11.1512 6.80563 13.0705 6.55082 15.0848 6.5114V1.12244ZM8.11616 7.5981C8.48058 6.47219 8.92645 5.4363 9.44096 4.51549C10.0779 3.37544 10.8339 2.39096 11.6856 1.63483C7.05407 2.95892 3.40335 6.55259 2.05824 11.1118C2.82637 10.2733 3.82649 9.5292 4.98463 8.9022C5.92005 8.39573 6.97237 7.95683 8.11616 7.5981ZM7.75014 8.86583C7.31111 10.5857 7.05226 12.475 7.01222 14.4578H1.53772C1.78237 12.7465 3.17924 11.1171 5.51548 9.8523C6.19314 9.4854 6.94181 9.15435 7.75014 8.86583ZM8.11403 14.4578C8.15951 12.294 8.47593 10.2626 8.99951 8.46765C10.8229 7.95225 12.8867 7.6407 15.0848 7.59593V9.9381C14.2647 12.0047 12.5922 13.6509 10.4928 14.4578H8.11403ZM7.01222 15.5422H1.53772C1.78237 17.2535 3.17924 18.8828 5.51548 20.1477C6.19314 20.5146 6.94181 20.8456 7.75014 21.1342C7.31111 19.4143 7.05226 17.525 7.01222 15.5422ZM8.99951 21.5324C8.47593 19.7374 8.15951 17.706 8.11403 15.5422H10.4928C12.5922 16.3491 14.2648 17.9953 15.0848 20.0619V22.4041C12.8867 22.3593 10.8229 22.0478 8.99951 21.5324ZM8.11616 22.4019C6.97237 22.0432 5.92005 21.6043 4.98463 21.0978C3.82649 20.4708 2.82637 19.7267 2.05824 18.8882C3.40335 23.4474 7.05407 27.0411 11.6856 28.3652C10.8339 27.609 10.0779 26.6246 9.44096 25.4845C8.92645 24.5637 8.48058 23.5278 8.11616 22.4019ZM15.0848 28.8775C13.3464 28.6367 11.6911 27.2617 10.4061 24.962C10.0334 24.2949 9.69711 23.5579 9.40401 22.7622C11.1512 23.1943 13.0705 23.4492 15.0848 23.4886V28.8775ZM19.5855 28.3652C20.4372 27.609 21.1932 26.6246 21.8302 25.4845C22.3447 24.5637 22.7905 23.5278 23.1549 22.4019C24.2987 22.0432 25.3511 21.6043 26.2865 21.0978C27.4446 20.4708 28.4448 19.7267 29.2129 18.8882C27.8678 23.4474 24.217 27.0411 19.5855 28.3652ZM21.8671 22.7622C21.574 23.5579 21.2377 24.2949 20.865 24.962C19.5801 27.2617 17.9248 28.6367 16.1863 28.8775V23.4886C18.2006 23.4492 20.1199 23.1943 21.8671 22.7622ZM23.521 21.1342C24.3293 20.8456 25.078 20.5146 25.7556 20.1477C28.0919 18.8828 29.4887 17.2535 29.7334 15.5422H24.2589C24.2189 17.525 23.96 19.4143 23.521 21.1342ZM23.1572 15.5422C23.1117 17.706 22.7952 19.7374 22.2716 21.5324C20.4482 22.0478 18.3845 22.3593 16.1863 22.4041V20.0636C17.0061 17.9963 18.679 16.3493 20.779 15.5422H23.1572ZM24.2589 14.4578H29.7334C29.4887 12.7465 28.0919 11.1171 25.7556 9.8523C25.078 9.4854 24.3293 9.15435 23.521 8.86583C23.96 10.5857 24.2189 12.475 24.2589 14.4578ZM22.2716 8.46765C22.7952 10.2626 23.1117 12.294 23.1572 14.4578H20.779C18.679 13.6507 17.0061 12.0037 16.1863 9.93637V7.59593C18.3845 7.6407 20.4482 7.95225 22.2716 8.46765ZM23.1549 7.5981C24.2987 7.95683 25.3511 8.39573 26.2865 8.9022C27.4446 9.5292 28.4448 10.2733 29.2129 11.1118C27.8678 6.55259 24.217 2.95892 19.5855 1.63483C20.4372 2.39096 21.1932 3.37544 21.8302 4.51549C22.3447 5.4363 22.7905 6.47219 23.1549 7.5981ZM16.1863 1.12244C17.9248 1.36327 19.5801 2.73831 20.865 5.03805C21.2377 5.70513 21.574 6.4421 21.8671 7.23783C20.1199 6.80563 18.2006 6.55082 16.1863 6.5114V1.12244Z" fill="white"/>
</g>
</g>
<defs>
<clipPath id="clip0_521_145">
<rect width="80" height="30" fill="white"/>
</clipPath>
</defs>
</svg>

<svg width="80" height="30" fill="none" xmlns="http://www.w3.org/2000/svg"><g clip-path="url(#a)"><mask id="b" style="mask-type:luminance" maskUnits="userSpaceOnUse" x="0" y="0" width="80" height="30"><path d="M80 0H0v30h80V0Z" fill="#fff"/></mask><g mask="url(#b)" fill="#fff"><path d="M36.675 26.428h2.083v-7.735h-2.083v7.735Zm0-8.942h2.083v-1.84h-2.083v1.84ZM40.1 28.962h2.084v-3.408h.03c.445.663 1.165 1.1 2.268 1.1 2.022 0 3.4-1.583 3.4-4.086 0-2.413-1.332-4.086-3.415-4.086-1.073 0-1.808.497-2.313 1.176h-.046v-.965H40.1v10.269Zm3.938-4.011c-1.241 0-1.9-.92-1.9-2.323 0-1.387.521-2.488 1.823-2.488 1.287 0 1.808 1.026 1.808 2.488 0 1.463-.674 2.323-1.731 2.323ZM52.039 26.655c1.96 0 3.308-.935 3.308-2.488 0-1.81-1.455-2.172-2.772-2.443-1.119-.226-2.16-.287-2.16-.95 0-.558.536-.86 1.348-.86.888 0 1.425.302 1.516 1.131h1.885c-.154-1.553-1.302-2.563-3.37-2.563-1.793 0-3.202.799-3.202 2.473 0 1.689 1.379 2.066 2.788 2.337 1.072.211 2.068.286 2.068 1.025 0 .543-.52.89-1.44.89-.934 0-1.578-.392-1.716-1.282h-1.93c.123 1.644 1.394 2.73 3.677 2.73ZM63.257 26.429v-7.736h-2.083v4.463c0 1.026-.597 1.75-1.578 1.75-.888 0-1.302-.498-1.302-1.403v-4.81h-2.068v5.157c0 1.689.98 2.79 2.727 2.79 1.103 0 1.715-.407 2.252-1.116h.046v.905h2.006ZM64.605 26.428h2.083v-4.493c0-1.026.567-1.689 1.41-1.689.766 0 1.21.452 1.21 1.327v4.855h2.083v-4.493c0-1.026.536-1.689 1.41-1.689.766 0 1.21.452 1.21 1.327v4.855h2.083v-5.202c0-1.689-.934-2.744-2.589-2.744-.995 0-1.823.512-2.359 1.357h-.03c-.383-.814-1.18-1.357-2.176-1.357-1.087 0-1.853.543-2.282 1.251h-.046v-1.04h-2.007v7.735ZM36.706 13.179h2.083V2.397h-2.083V13.18ZM43.883 13.405c2.436 0 4.106-1.78 4.106-4.086 0-2.307-1.67-4.087-4.106-4.087-2.435 0-4.105 1.78-4.105 4.087 0 2.307 1.67 4.086 4.105 4.086Zm0-1.568c-1.287 0-1.991-1.01-1.991-2.518 0-1.508.704-2.534 1.991-2.534 1.272 0 1.992 1.026 1.992 2.534 0 1.508-.72 2.518-1.992 2.518ZM52.419 15.818c1.164 0 2.175-.271 2.834-.875.582-.527.934-1.266.934-2.352V5.443h-2.006v.815h-.03c-.476-.649-1.196-1.026-2.176-1.026-1.992 0-3.401 1.478-3.401 3.785 0 2.337 1.716 3.694 3.462 3.694.996 0 1.593-.392 2.053-.904h.046v.844c0 1.056-.567 1.614-1.747 1.614-.965 0-1.409-.377-1.577-.86h-2.069c.215 1.508 1.532 2.413 3.677 2.413Zm-.03-4.75c-1.073 0-1.778-.77-1.778-2.081 0-1.297.705-2.111 1.762-2.111 1.256 0 1.869.965 1.869 2.096 0 1.146-.536 2.096-1.854 2.096ZM61.251 13.405c2.436 0 4.106-1.78 4.106-4.086 0-2.307-1.67-4.087-4.106-4.087-2.435 0-4.105 1.78-4.105 4.087 0 2.307 1.67 4.086 4.105 4.086Zm0-1.568c-1.286 0-1.991-1.01-1.991-2.518 0-1.508.705-2.534 1.991-2.534 1.272 0 1.992 1.026 1.992 2.534 0 1.508-.72 2.518-1.992 2.518ZM67.183 10.223h9.007V8.46h-9.007v1.764ZM76.851 17.379c0-.347.286-.629.639-.629h1.276c.352 0 .638.282.638.629a.633.633 0 0 1-.638.628H77.49a.633.633 0 0 1-.639-.628Z"/><path fill-rule="evenodd" clip-rule="evenodd" d="M15.636 0c8.415 0 15.238 6.716 15.238 15 0 8.284-6.823 15-15.238 15C7.22 30 .397 23.284.397 15c0-8.284 6.823-15 15.239-15Zm-.551 1.122c-1.739.241-3.394 1.616-4.679 3.916a15.499 15.499 0 0 0-1.002 2.2 25.876 25.876 0 0 1 5.68-.727V1.122ZM8.116 7.598c.365-1.126.81-2.162 1.325-3.083.637-1.14 1.393-2.124 2.245-2.88-4.632 1.324-8.283 4.918-9.628 9.477.768-.839 1.768-1.583 2.927-2.21a17.742 17.742 0 0 1 3.131-1.304ZM7.75 8.866a24.727 24.727 0 0 0-.738 5.592H1.538c.244-1.712 1.641-3.34 3.977-4.606a15.99 15.99 0 0 1 2.235-.986Zm.364 5.592c.046-2.164.362-4.195.886-5.99 1.823-.516 3.887-.827 6.085-.872v2.342a8.045 8.045 0 0 1-4.592 4.52H8.114Zm-1.102 1.084H1.538c.244 1.711 1.641 3.34 3.977 4.606a16 16 0 0 0 2.235.986 24.727 24.727 0 0 1-.738-5.592ZM9 21.532c-.524-1.795-.84-3.826-.886-5.99h2.379a8.045 8.045 0 0 1 4.592 4.52v2.342c-2.198-.045-4.262-.356-6.085-.872Zm-.884.87a17.738 17.738 0 0 1-3.131-1.304c-1.159-.627-2.159-1.371-2.927-2.21 1.345 4.56 4.996 8.153 9.628 9.477-.852-.756-1.608-1.74-2.245-2.88-.515-.921-.96-1.957-1.325-3.083Zm6.969 6.476c-1.739-.241-3.394-1.616-4.679-3.916a15.502 15.502 0 0 1-1.002-2.2 25.88 25.88 0 0 0 5.68.727v5.389Zm4.5-.513c.852-.756 1.608-1.74 2.245-2.88.515-.921.96-1.957 1.325-3.083a17.738 17.738 0 0 0 3.131-1.304c1.159-.627 2.159-1.371 2.927-2.21-1.345 4.56-4.996 8.153-9.628 9.477Zm2.282-5.603c-.293.796-.63 1.533-1.002 2.2-1.285 2.3-2.94 3.675-4.679 3.916v-5.39a25.88 25.88 0 0 0 5.681-.726Zm1.654-1.628c.808-.288 1.557-.62 2.235-.986 2.336-1.265 3.733-2.895 3.977-4.606H24.26a24.727 24.727 0 0 1-.738 5.592Zm-.364-5.592c-.045 2.164-.362 4.195-.885 5.99-1.824.516-3.887.827-6.086.872v-2.34a8.045 8.045 0 0 1 4.593-4.522h2.378Zm1.102-1.084h5.474c-.244-1.712-1.641-3.34-3.977-4.606a15.988 15.988 0 0 0-2.235-.986c.439 1.72.698 3.609.738 5.592Zm-1.987-5.99c.523 1.795.84 3.826.885 5.99H20.78a8.045 8.045 0 0 1-4.593-4.522v-2.34c2.198.045 4.262.356 6.086.872Zm.883-.87c1.144.359 2.196.798 3.131 1.304 1.159.627 2.159 1.371 2.927 2.21-1.345-4.56-4.996-8.153-9.628-9.477.852.756 1.608 1.74 2.245 2.88.515.921.96 1.957 1.325 3.083Zm-6.969-6.476c1.739.241 3.394 1.616 4.679 3.916a15.5 15.5 0 0 1 1.002 2.2 25.876 25.876 0 0 0-5.68-.727V1.122Z"/></g></g><defs><clipPath id="a"><path fill="#fff" d="M0 0h80v30H0z"/></clipPath></defs></svg>
